resources/haticons/SVG/happy1.svg

<!-- Generated by IcoMoon.io -->
<svg version="1.1" xmlns="http://www.w3.org/2000/svg" width="24" height="24" viewBox="0 0 24 24">
<title>happy1</title>
<path d="M12 0c-6.619 0-12 5.381-12 12s5.381 12 12 12 12-5.381 12-12-5.381-12-12-12zM12 22.5c-5.79 0-10.5-4.71-10.5-10.5s4.71-10.5 10.5-10.5 10.5 4.71 10.5 10.5-4.71 10.5-10.5 10.5zM9.322 8.010c0 0.899-0.729 1.627-1.627 1.627s-1.628-0.729-1.628-1.627c0-0.899 0.729-1.627 1.628-1.627s1.627 0.729 1.627 1.627zM17.933 8.010c0 0.899-0.729 1.627-1.628 1.627s-1.627-0.729-1.627-1.627c0-0.899 0.729-1.627 1.627-1.627s1.628 0.729 1.628 1.627zM19.703 13.714c-0.394-0.12-0.814 0.109-0.934 0.503-0.011 0.045-1.402 4.481-6.769 4.481-5.333 0-6.712-4.301-6.772-4.485-0.12-0.398-0.54-0.619-0.934-0.503-0.394 0.124-0.619 0.54-0.503 0.938 0.019 0.056 1.736 5.55 8.209 5.55s8.19-5.494 8.209-5.55c0.116-0.398-0.109-0.817-0.506-0.934z"></path>
</svg>

<svg xmlns="http://www.w3.org/2000/svg" width="24" height="24"><path d="M12 0C5.381 0 0 5.381 0 12s5.381 12 12 12 12-5.381 12-12S18.619 0 12 0zm0 22.5C6.21 22.5 1.5 17.79 1.5 12S6.21 1.5 12 1.5 22.5 6.21 22.5 12 17.79 22.5 12 22.5zM9.322 8.01a1.627 1.627 0 1 1-3.254 0 1.627 1.627 0 0 1 3.254 0zm8.611 0a1.627 1.627 0 1 1-3.255 0 1.627 1.627 0 0 1 3.255 0zm1.77 5.704a.753.753 0 0 0-.934.503c-.011.045-1.402 4.481-6.769 4.481-5.333 0-6.712-4.301-6.772-4.485a.753.753 0 0 0-.934-.503.76.76 0 0 0-.503.938c.019.056 1.736 5.55 8.209 5.55s8.19-5.494 8.209-5.55a.753.753 0 0 0-.506-.934z"/></svg>
